apps/16/kali-menu.svg

<?xml version="1.0" encoding="UTF-8" standalone="no"?>
<svg
   xmlns:dc="http://purl.org/dc/elements/1.1/"
   xmlns:cc="http://creativecommons.org/ns#"
   xmlns:rdf="http://www.w3.org/1999/02/22-rdf-syntax-ns#"
   xmlns:svg="http://www.w3.org/2000/svg"
   xmlns="http://www.w3.org/2000/svg"
   xmlns:sodipodi="http://sodipodi.sourceforge.net/DTD/sodipodi-0.dtd"
   xmlns:inkscape="http://www.inkscape.org/namespaces/inkscape"
   height="16"
   width="16"
   version="1.1"
   id="svg8"
   sodipodi:docname="kali-menu-symbolic.svg"
   inkscape:version="0.92.3 (2405546, 2018-03-11)">
  <metadata
     id="metadata14">
    <rdf:RDF>
      <cc:Work
         rdf:about="">
        <dc:format>image/svg+xml</dc:format>
        <dc:type
           rdf:resource="http://purl.org/dc/dcmitype/StillImage" />
      </cc:Work>
    </rdf:RDF>
  </metadata>
  <defs
     id="defs12" />
  <sodipodi:namedview
     pagecolor="#808080"
     bordercolor="#808080666"
     borderopacity="1"
     objecttolerance="10"
     gridtolerance="10"
     guidetolerance="10"
     inkscape:pageopacity="0"
     inkscape:pageshadow="2"
     inkscape:window-width="1521"
     inkscape:window-height="817"
     id="namedview10"
     showgrid="false"
     inkscape:zoom="14.75"
     inkscape:cx="0.54237288"
     inkscape:cy="8"
     inkscape:window-x="92"
     inkscape:window-y="332"
     inkscape:window-maximized="0"
     inkscape:current-layer="g6" />
  <g
     transform="translate(-812.002 -443.948)"
     id="g6">
    <rect
       color="#000"
       fill="#808080"
       height="16"
       overflow="visible"
       rx="2.934"
       ry="2.986"
       style="marker:none;fill:#808080;fill-opacity:1"
       width="6"
       x="812.002"
       y="443.948"
       id="rect2" />
    <path
       color="#000"
       d="M817.408 443.948c.878.713 1.469 1.792 1.469 3v1h2.125c-.074-1.093 1.249-2 2-2 .68 0 1 .011 1 1v1h1.219c1.228-.6 1.78-1.97 1.78-2.688 0-.736-2.385-1.312-3.687-1.312zM819.002 448.948v4.313c2.766 2.661 6.125 2.406 6.125 2.406s.353-1.52-1.906-4.031l-2.375-2.688h-1.782c-.02.002-.04-.002-.062 0zm2.975 2.532l1.683 1.737c-1.799.165-2.15-.856-1.683-1.737z"
       fill="#808080"
       overflow="visible"
       style="marker:none;fill:#808080;fill-opacity:1"
       id="path4" />
  </g>
</svg>

<svg xmlns="http://www.w3.org/2000/svg" width="16" height="16" version="1.1">
 <g transform="translate(-812,-443.95)">
  <rect style="fill:#808080" width="6" height="16" x="812" y="443.95" rx="2.934" ry="2.986"/>
  <path style="fill:#808080" d="M 817.41,443.95 C 818.29,444.66 818.88,445.74 818.88,446.95 V 447.95 H 821 C 820.93,446.85 822.25,445.95 823,445.95 823.68,445.95 824,445.96 824,446.95 V 447.95 H 825.22 C 826.45,447.35 827,445.98 827,445.26 827,444.52 824.62,443.95 823.31,443.95 Z M 819,448.95 V 453.26 C 821.77,455.92 825.13,455.67 825.13,455.67 825.13,455.67 825.48,454.15 823.22,451.64 L 820.85,448.95 H 819.06 C 819.04,448.95 819.02,448.95 819,448.95 Z M 821.98,451.48 823.66,453.22 C 821.86,453.38 821.51,452.36 821.98,451.48 Z"/>
 </g>
</svg>
